style-guide/assets/xd-icons-page-list-tiny.svg

<?xml version="1.0" encoding="UTF-8"?>
<svg width="12px" height="12px" viewBox="0 0 12 12" version="1.1" xmlns="http://www.w3.org/2000/svg" xmlns:xlink="http://www.w3.org/1999/xlink">
    <!-- Generator: Sketch 51.3 (57544) - http://www.bohemiancoding.com/sketch -->
    <title>page list</title>
    <desc>Created with Sketch.</desc>
    <defs></defs>
    <g id="page-list" stroke="none" stroke-width="1" fill="none" fill-rule="evenodd">
        <path d="M4,7 C4.553,7 5,7.448 5,8 L5,11 C5,11.552 4.553,12 4,12 L1,12 C0.447,12 0,11.552 0,11 L0,8 C0,7.448 0.447,7 1,7 L4,7 Z M4,0 C4.553,0 5,0.448 5,1 L5,4 C5,4.552 4.553,5 4,5 L1,5 C0.447,5 0,4.552 0,4 L0,1 C0,0.448 0.447,0 1,0 L4,0 Z M8,2 C7.447,2 7,1.552 7,1 C7,0.448 7.447,0 8,0 L11,0 C11.553,0 12,0.448 12,1 C12,1.552 11.553,2 11,2 L8,2 Z M11,5 C11.553,5 12,5.448 12,6 C12,6.552 11.553,7 11,7 L8,7 C7.447,7 7,6.552 7,6 C7,5.448 7.447,5 8,5 L11,5 Z M11,10 C11.553,10 12,10.448 12,11 C12,11.552 11.553,12 11,12 L8,12 C7.447,12 7,11.552 7,11 C7,10.448 7.447,10 8,10 L11,10 Z" id="Fill-1" fill="#000000"></path>
    </g>
</svg>

<svg viewBox="0 0 12 12" xmlns="http://www.w3.org/2000/svg">
  <path d="M4 7a1 1 0 0 1 1 1v3a1 1 0 0 1-1 1H1a1 1 0 0 1-1-1V8a1 1 0 0 1 1-1h3zm0-7a1 1 0 0 1 1 1v3a1 1 0 0 1-1 1H1a1 1 0 0 1-1-1V1a1 1 0 0 1 1-1h3zm4 2a1 1 0 1 1 0-2h3a1 1 0 1 1 0 2H8zm3 3a1 1 0 1 1 0 2H8a1 1 0 1 1 0-2h3zm0 5a1 1 0 1 1 0 2H8a1 1 0 1 1 0-2h3z" fill="#000" fill-rule="evenodd"/>
</svg>
